X: 1
T: Hamish the Carpenter
B: DunGreen Colln
O: Cape Breton
Z: arr. T. Traub 3-5-2000
M: 4/4
L: 1/8
R: reel
K: Am
B | "Am"A2GE GABd  |  "G"e2dB "Em"degB | "Am"A2GE    GABd |  "G"egdB "Am"A/A/A A ||
B | "Am"A2GE GAg^f | "Em"e2dB     dega |  "C"gedB "G"GABd | "Em"egdB "Am"A/A/A A |]
[BB,] | "Am"[AA,]aab a2 ge | "G"gaba gegd |\
[1 "Am"egab    a2ge | "G"dBgB "Am"A/A/A A :|\
[2 "Am"egab "C"ageg | "G"dBgB "Am"A/A/A A |]

